src/assets/icons/bell.svg

<svg width="14" height="14" viewBox="0 0 14 14" fill="none" xmlns="http://www.w3.org/2000/svg">
<g id="bell">
<g clip-path="url(#clip0_156_4600)">
<path id="Vector" fill-rule="evenodd" clip-rule="evenodd" d="M7 0.378357C5.43754 0.378357 4.19901 0.899949 3.3578 1.84576C2.52555 2.78149 2.14162 4.06537 2.14162 5.48647C2.14162 8.07341 1.61629 9.24623 1.19703 9.76474C0.990342 10.0204 0.800617 10.129 0.685878 10.1763C0.626726 10.2006 0.582878 10.2106 0.560843 10.2145C0.554597 10.2156 0.5501 10.2162 0.547508 10.2165C0.243339 10.2271 0 10.477 0 10.7838C0 11.0972 0.254109 11.3513 0.567568 11.3513H4.2187C4.48095 12.6481 5.62475 13.6216 7 13.6216C8.37525 13.6216 9.51905 12.6481 9.7813 11.3513H13.4324C13.7459 11.3513 14 11.0972 14 10.7838C14 10.477 13.7567 10.2271 13.4525 10.2165L13.4508 10.2163C13.4481 10.216 13.4442 10.2154 13.4392 10.2145C13.4171 10.2106 13.3733 10.2006 13.3141 10.1763C13.1994 10.129 13.0097 10.0204 12.803 9.76474C12.3837 9.24623 11.8584 8.07341 11.8584 5.48647C11.8584 4.06537 11.4745 2.78149 10.6422 1.84576C9.80099 0.899949 8.56246 0.378357 7 0.378357ZM8.6064 11.3513C8.37346 12.0137 7.7436 12.4865 7 12.4865C6.2564 12.4865 5.62654 12.0137 5.3936 11.3513H8.6064ZM11.7285 10.2162C11.1651 9.3653 10.7232 7.92592 10.7232 5.48647C10.7232 4.25891 10.392 3.27252 9.79401 2.60015C9.20496 1.93785 8.29808 1.51349 7 1.51349C5.70192 1.51349 4.79505 1.93785 4.20599 2.60015C3.60797 3.27252 3.27676 4.25891 3.27676 5.48647C3.27676 7.92592 2.83487 9.3653 2.27147 10.2162H11.7285Z" fill="black"/>
</g>
</g>
<defs>
<clipPath id="clip0_156_4600">
<rect width="14" height="14" fill="white"/>
</clipPath>
</defs>
</svg>

<svg xmlns="http://www.w3.org/2000/svg" fill="none" viewBox="0 0 14 14"><g clip-path="url(#a)"><path fill="#000" fill-rule="evenodd" d="M7 .378C5.438.378 4.199.9 3.358 1.846c-.832.935-1.216 2.22-1.216 3.64 0 2.587-.526 3.76-.945 4.279-.207.255-.396.364-.511.411a.6.6 0 0 1-.138.04.568.568 0 0 0 .02 1.135h3.65A2.835 2.835 0 0 0 7 13.621a2.835 2.835 0 0 0 2.781-2.27h3.651a.568.568 0 0 0 .02-1.135h-.001q-.005 0-.012-.002a.6.6 0 0 1-.125-.038c-.115-.047-.304-.156-.511-.411-.42-.519-.945-1.692-.945-4.279 0-1.42-.383-2.705-1.216-3.64C9.801.9 8.562.378 7 .378m1.606 10.973A1.7 1.7 0 0 1 7 12.486a1.7 1.7 0 0 1-1.606-1.135zm3.123-1.135c-.564-.85-1.006-2.29-1.006-4.73 0-1.227-.331-2.213-.929-2.886C9.205 1.938 8.298 1.513 7 1.513S4.795 1.938 4.206 2.6c-.598.673-.93 1.659-.93 2.886 0 2.44-.441 3.88-1.005 4.73z" clip-rule="evenodd"/></g><defs><clipPath id="a"><path fill="#fff" d="M0 0h14v14H0z"/></clipPath></defs></svg>
